packages/katcn/src/icons/svg/arrow8.svg

<svg width="24" height="25" viewBox="0 0 24 25" fill="none" xmlns="http://www.w3.org/2000/svg">
<path d="M22.8719 9.61973L20.7942 3.7905C20.5108 3.05028 19.8497 2.40259 18.9998 2.31006C18.1498 2.21753 17.2998 2.58764 16.8276 3.23533L16.4498 3.69797C15.1276 3.05028 13.6165 2.68017 12.011 2.68017C6.43883 2.7727 2 7.12149 2 12.4881C2 17.8547 6.43883 22.296 12.011 22.296C16.4498 22.296 20.4164 19.3351 21.6442 15.1714C21.7386 14.7087 21.4553 14.1536 20.9831 14.061C20.5108 13.9685 19.9442 14.2461 19.8497 14.7087C18.9053 18.1323 15.6942 20.4454 12.011 20.4454C7.57214 20.4454 3.88886 16.9294 3.88886 12.4881C3.88886 8.13929 7.57214 4.53072 12.011 4.53072C13.5221 4.53072 14.9387 4.90083 16.2609 5.64105C16.6387 5.91863 17.2053 5.8261 17.4887 5.36347L18.3387 4.16061C18.4331 4.16061 18.622 4.16061 18.622 4.16061C18.7164 4.16061 18.9053 4.25314 18.9053 4.43819L20.9831 10.2674C21.0775 10.4525 20.9831 10.6375 20.7942 10.7301H20.6997L14.372 10.8226C14.1832 10.8226 14.0887 10.7301 14.0887 10.6375C14.0887 10.545 13.9943 10.4525 14.0887 10.2674L15.1276 8.78698C15.222 8.60193 15.3165 8.32434 15.222 8.04676C15.1276 7.76918 15.0331 7.58413 14.7498 7.39907C13.8998 6.93643 12.9554 6.75138 12.011 6.75138C8.7999 6.75138 6.1555 9.34215 6.1555 12.4881C6.1555 15.634 8.7999 18.2248 12.011 18.2248C14.0887 18.2248 16.072 17.1145 17.1109 15.3564C17.3942 14.8938 17.2053 14.3386 16.7331 14.061C16.2609 13.7835 15.6942 13.9685 15.4109 14.4312C14.6554 15.634 13.4276 16.3742 11.9165 16.3742C9.74433 16.3742 7.94991 14.6162 7.94991 12.4881C7.94991 10.3599 9.74433 8.60193 11.9165 8.60193C12.1999 8.60193 12.4832 8.60193 12.7665 8.69445L12.4832 9.15709C12.011 9.80478 11.9165 10.7301 12.2943 11.4703C12.6721 12.2105 13.5221 12.6731 14.2776 12.6731L20.6053 12.5806C20.9831 12.5806 21.3608 12.4881 21.6442 12.303C22.7775 11.8404 23.2497 10.7301 22.8719 9.61973Z" fill="black"/>
</svg>

<svg xmlns="http://www.w3.org/2000/svg" fill="none" viewBox="0 0 24 25"><path fill="#000" d="m22.872 9.62-2.078-5.83c-.283-.74-.944-1.387-1.794-1.48s-1.7.278-2.172.925l-.378.463a10.1 10.1 0 0 0-4.44-1.018C6.439 2.773 2 7.121 2 12.488s4.439 9.808 10.011 9.808c4.439 0 8.405-2.96 9.633-7.125.095-.462-.189-1.017-.66-1.11-.473-.092-1.04.185-1.134.648-.945 3.423-4.156 5.736-7.839 5.736-4.439 0-8.122-3.516-8.122-7.957 0-4.349 3.683-7.957 8.122-7.957q2.267 0 4.25 1.11c.378.278.944.185 1.228-.278l.85-1.202h.283c.094 0 .283.092.283.277l2.078 5.83c.095.184 0 .37-.189.462H20.7l-6.328.093c-.189 0-.283-.093-.283-.186 0-.092-.095-.184 0-.37l1.039-1.48c.094-.185.188-.463.094-.74-.094-.278-.189-.463-.472-.648-.85-.463-1.795-.648-2.739-.648-3.211 0-5.855 2.591-5.855 5.737s2.644 5.737 5.855 5.737c2.078 0 4.061-1.11 5.1-2.869.283-.462.094-1.017-.378-1.295-.472-.277-1.039-.092-1.322.37-.756 1.203-1.983 1.943-3.495 1.943-2.172 0-3.966-1.758-3.966-3.886s1.794-3.886 3.966-3.886c.284 0 .567 0 .85.092l-.283.463a2.26 2.26 0 0 0-.189 2.313c.378.74 1.228 1.203 1.984 1.203l6.327-.092c.378 0 .756-.093 1.04-.278 1.133-.463 1.605-1.573 1.227-2.683"/></svg>
